X:83
T:Jack Mitchell's Polka
B:Terry "Cuz" Teahan "Sliabh Luachra on Parade" 1980
Z:Patrick Cavanagh
M:2/4
L:1/8
R:Polka
K:D
| DF AB/c/ | dc BA | BE EF | G2 FE | 
DF AB/c/ | dc BA | Be Bc | d2 d2 :| 
| fA fA | fA f2 | ed B/c/d | e2 ed/e/ | 
fA fA | gB gf | ed Bc | d2 d2 :|| 

